X: 38682
T: Strasby
R: strathspey
M: 4/4
K: Dmajor
DF AD|AD FA|dA B/A/G/F/|GE EF|
DF AD|AD FA|f/e/d/c/ dB|AF Fd:|
de fg|eg dA|Bd B/A/G/F/|GE EA|
de fg|eg dA|B/A/B/c/ d/c/d/e/|fd de|
fg ef|de Be|dA B/A/G/F/|GE EF|
DE FA|Bc de|f/e/d/c/ dB|AF Fd||

